digital/Imbassy-X-Files/65ef0811cc67439994568a45/65ef0811cc67439994568f2e_realblocks.svg

<svg fill="none" height="56" viewBox="0 0 256 56" width="256" xmlns="http://www.w3.org/2000/svg"><g fill="#fff"><path d="m148.009 28.6767c2.717 1.0828 3.866 2.6968 3.722 5.1685-.149 2.5438-1.595 4.2051-4.309 4.9277-.468.1238-.949.2882-1.423.2904-3.922.0225-7.842.0135-11.834.0135v-20.161c.315-.0337.598-.0922.884-.0945 2.995-.0068 5.993-.09 8.982.036 1.428.0608 2.921.3197 4.241.8442 2.058.8194 2.906 2.5933 2.856 4.7814-.045 2.0012-1.066 3.2888-2.928 3.9484-.056.0203-.09.1081-.195.2431zm-9.099 6.4292c2.022 0 3.929.0765 5.825-.027 1.282-.0698 1.943-.8847 1.97-2.0328.027-1.1616-.592-2.071-1.838-2.1566-1.958-.135-3.933-.036-5.957-.036v4.2546zm.016-12.3384v4.2321c1.684 0 3.324.0608 4.954-.018 1.367-.0653 2.197-.9365 2.2-2.0845 0-1.1954-.734-2.0148-2.164-2.1048-1.633-.1036-3.276-.0248-4.992-.0248z"/><path d="m78.0412 39.1197h-4.8058v-20.3028h1.2571c2.7728 0 5.5457-.0225 8.3163.0113.9692.0112 1.9497.081 2.8987.2611 2.9843.5673 4.7721 2.4357 5.0915 5.2158.3283 2.8725-.8096 4.7319-3.9108 6.1366 2.8785.8959 3.1574 3.174 3.3216 5.5692.0697 1.0288.3733 2.0418.5892 3.1561-1.3808 0-2.8269.0338-4.2706-.0338-.2429-.0112-.614-.4232-.6747-.7046-.2451-1.1323-.4228-2.2826-.5667-3.4329-.2631-2.0958-1.003-2.8297-3.1192-2.8972-1.3403-.0428-2.6829-.009-4.1266-.009v7.0257zm.0202-10.9674c1.979 0 3.8838.1261 5.7638-.0405 1.5315-.1351 2.1544-1.04 2.1679-2.5123.0135-1.4519-.7151-2.5145-2.2038-2.6428-1.8778-.1643-3.7804-.0405-5.7279-.0405v5.2338z"/><path d="m195.031 18.876h4.515v11.2601c1.572-1.5376 2.949-2.7802 4.194-4.1421.859-.941 1.779-1.3484 3.045-1.2291 1.107.1058 2.229.0225 3.5.2566-1.901 1.8009-3.803 3.6018-5.782 5.477 2.048 2.8499 4.068 5.6638 6.231 8.6713-1.765 0-3.317.0315-4.866-.0293-.29-.0112-.634-.3399-.839-.61-1.334-1.7582-2.636-3.541-3.989-5.3712-.997.7046-1.676 1.4362-1.509 2.7621.128 1.0265.024 2.0823.024 3.1853h-4.527v-20.2307z"/><path d="m109.425 29.6073c.209-2.2962 1.768-4.1758 4.03-4.8151 1.802-.5088 3.641-.5156 5.443.009 2.327.6753 3.6 2.3681 3.663 4.8173.04 1.5398.013 3.0796.016 4.6193 0 1.3552.647 2.0298 1.943 2.0238.479 2.3411.303 2.7396-2.069 3.1335-1.842.3062-3.342-.2566-4.183-2.2713-1.493 2.2668-3.648 2.519-5.964 2.2601-1.804-.2026-3.14-1.3619-3.436-2.9242-.371-1.9562.305-3.6693 2.116-4.3829 1.722-.6776 3.589-.9928 5.395-1.452.504-.1283 1.019-.2004 1.576-.3084.09-1.076-.15-1.8977-1.214-2.2781-1.1-.3917-2.328.0045-2.764 1.0557-.315.7542-.742.8937-1.453.8037-1.03-.1306-2.066-.1981-3.099-.2927zm8.548 3.1786c-1.223.2881-2.35.5155-3.452.8284-.841.2386-1.408.8081-1.158 1.7536.247.9432 1.055 1.094 1.882 1.0197 1.694-.153 2.708-1.4294 2.728-3.6017z"/><path d="m107.212 33.0544h-10.0385c.0292 1.4002.6431 2.2646 1.8665 2.7239 1.374.5155 3.142.2859 3.834-.7406.569-.8442 1.199-.9613 2.067-.8285.735.1149 1.482.1644 2.226.2454-.629 3.7189-4.122 5.6526-8.7836 4.93-3.9805-.6168-6.4768-4.1736-5.8538-8.3359.6836-4.5653 4.3695-7.1968 9.1194-6.5125 3.854.556 6.171 4.0182 5.566 8.5182zm-4.484-2.5415c-.04-1.7311-1.061-2.6946-2.714-2.6743-1.6936.0203-2.7573 1.0558-2.7281 2.6743z"/><path d="m168.742 24.4434c4.586 0 7.736 3.0795 7.734 7.5502-.002 4.4595-3.169 7.557-7.736 7.5705-4.554.0113-7.711-3.0863-7.714-7.5728-.002-4.4932 3.122-7.5479 7.716-7.5479zm-3.128 7.3994c.18.8712.263 1.6208.497 2.3186.376 1.1301 1.194 1.7807 2.413 1.8459 1.241.0676 2.213-.4029 2.721-1.5622.74-1.6929.733-3.4127-.085-5.0876-.5-1.0197-1.406-1.4227-2.483-1.4114-1.043.009-1.936.439-2.355 1.4227-.344.8081-.492 1.6996-.706 2.4717z"/><path d="m223.936 29.1964c-.135.0361-.275.0968-.416.1058-1.046.0608-2.094.1126-3.117.1644-1.046-1.6591-2.249-2.3344-3.765-1.9135-.504.1396-1.136.6889-1.253 1.1616-.177.7181.554.923 1.177 1.0423 1.396.2679 2.811.475 4.178.8509 2.265.6236 3.418 2.08 3.456 4.1555.039 2.0463-1.086 3.6288-3.283 4.3132-2.471.7699-4.965.7181-7.354-.3737-1.731-.7924-2.732-2.1431-2.842-4.2051h3.944c.536 1.7649 1.959 2.1566 3.673 1.9855.699-.0698 1.407-.2589 1.488-1.0918.084-.8554-.598-1.1481-1.286-1.2989-1.462-.3174-2.95-.5222-4.394-.9049-1.577-.4165-2.751-1.3282-3.086-3.0661-.384-2.0034.488-3.9507 2.431-4.8511 2.744-1.2696 5.537-1.1976 8.222.2229 1.383.7316 2.087 2.0327 2.227 3.703z"/><path d="m188.948 33.0023c1.32.1103 2.505.2071 3.681.3039.007 3.5005-2.984 6.2085-6.8 6.2558-4.511.0563-7.684-2.9354-7.806-7.3634-.121-4.4212 2.818-7.548 7.28-7.7438 4.129-.1824 7.122 2.2804 7.362 6.1951-1.101.0787-2.208.1936-3.317.2093-.211.0023-.528-.3422-.629-.592-.709-1.7446-1.718-2.4605-3.281-2.2624-1.552.1958-2.467 1.1841-2.623 3.0187-.074.8847-.051 1.8122.133 2.6766.308 1.4475 1.316 2.2219 2.69 2.2894 1.453.072 2.48-.6326 2.998-2.0598.101-.2791.188-.5605.312-.9274z"/><path d="m130.929 39.1235h-4.497v-20.2173h4.497v20.2196z"/><path d="m154.295 18.8838h4.453v20.2308h-4.453z"/><path d="m31 19.6023v26.3178h35.8041v-35.84zm30.3686 21.1019h-24.9331v-16.9756l24.9331-6.6318z"/></g></svg>

<svg width="256" height="56" viewBox="0 0 256 56" fill="none" xmlns="http://www.w3.org/2000/svg">
<path d="M148.009 28.6767C150.726 29.7595 151.875 31.3735 151.731 33.8452C151.582 36.389 150.136 38.0503 147.422 38.7729C146.954 38.8967 146.473 39.0611 145.999 39.0633C142.077 39.0858 138.157 39.0768 134.165 39.0768V18.9158C134.48 18.8821 134.763 18.8236 135.049 18.8213C138.044 18.8145 141.042 18.7313 144.031 18.8573C145.459 18.9181 146.952 19.177 148.272 19.7015C150.33 20.5209 151.178 22.2948 151.128 24.4829C151.083 26.4841 150.062 27.7717 148.2 28.4313C148.144 28.4516 148.11 28.5394 148.005 28.6744L148.009 28.6767ZM138.91 35.1059C140.932 35.1059 142.839 35.1824 144.735 35.0789C146.017 35.0091 146.678 34.1942 146.705 33.0461C146.732 31.8845 146.113 30.9751 144.867 30.8895C142.909 30.7545 140.934 30.8535 138.91 30.8535V35.1081V35.1059ZM138.926 22.7675V26.9996C140.61 26.9996 142.25 27.0604 143.88 26.9816C145.247 26.9163 146.077 26.0451 146.08 24.8971C146.08 23.7017 145.346 22.8823 143.916 22.7923C142.283 22.6887 140.64 22.7675 138.924 22.7675H138.926Z" fill="white"/>
<path d="M78.0412 39.1197H73.2354V18.8169C73.6919 18.8169 74.0922 18.8169 74.4925 18.8169C77.2653 18.8169 80.0382 18.7944 82.8088 18.8282C83.778 18.8394 84.7585 18.9092 85.7075 19.0893C88.6918 19.6566 90.4796 21.525 90.799 24.3051C91.1273 27.1776 89.9894 29.037 86.8882 30.4417C89.7667 31.3376 90.0456 33.6157 90.2098 36.0109C90.2795 37.0397 90.5831 38.0527 90.799 39.167C89.4182 39.167 87.9721 39.2008 86.5284 39.1332C86.2855 39.122 85.9144 38.71 85.8537 38.4286C85.6086 37.2963 85.4309 36.146 85.287 34.9957C85.0239 32.8999 84.284 32.166 82.1678 32.0985C80.8275 32.0557 79.4849 32.0895 78.0412 32.0895V39.1152V39.1197ZM78.0614 28.1523C80.0404 28.1523 81.9452 28.2784 83.8252 28.1118C85.3567 27.9767 85.9796 27.0718 85.9931 25.5995C86.0066 24.1476 85.278 23.085 83.7893 22.9567C81.9115 22.7924 80.0089 22.9162 78.0614 22.9162V28.15V28.1523Z" fill="white"/>
<path d="M195.031 18.876H199.546V30.1361C201.118 28.5985 202.495 27.3559 203.74 25.994C204.599 25.053 205.519 24.6456 206.785 24.7649C207.892 24.8707 209.014 24.7874 210.285 25.0215C208.384 26.8224 206.482 28.6233 204.503 30.4985C206.551 33.3484 208.571 36.1623 210.734 39.1698C208.969 39.1698 207.417 39.2013 205.868 39.1405C205.578 39.1293 205.234 38.8006 205.029 38.5305C203.695 36.7723 202.393 34.9895 201.04 33.1593C200.043 33.8639 199.364 34.5955 199.531 35.9214C199.659 36.9479 199.555 38.0037 199.555 39.1067H195.028V18.876H195.031Z" fill="white"/>
<path d="M109.425 29.6073C109.634 27.3111 111.193 25.4315 113.455 24.7922C115.257 24.2834 117.096 24.2766 118.898 24.8012C121.225 25.4765 122.498 27.1693 122.561 29.6185C122.601 31.1583 122.574 32.6981 122.577 34.2378C122.577 35.593 123.224 36.2676 124.52 36.2616C124.999 38.6027 124.823 39.0012 122.451 39.3951C120.609 39.7013 119.109 39.1385 118.268 37.1238C116.775 39.3906 114.62 39.6428 112.304 39.3839C110.5 39.1813 109.164 38.022 108.868 36.4597C108.497 34.5035 109.173 32.7904 110.984 32.0768C112.706 31.3992 114.573 31.084 116.379 30.6248C116.883 30.4965 117.398 30.4244 117.955 30.3164C118.045 29.2404 117.805 28.4187 116.741 28.0383C115.641 27.6466 114.413 28.0428 113.977 29.094C113.662 29.8482 113.235 29.9877 112.524 29.8977C111.494 29.7671 110.458 29.6996 109.425 29.605V29.6073ZM117.973 32.7859C116.75 33.074 115.623 33.3014 114.521 33.6143C113.68 33.8529 113.113 34.4224 113.363 35.3679C113.61 36.3111 114.418 36.4619 115.245 36.3876C116.939 36.2346 117.953 34.9582 117.973 32.7859Z" fill="white"/>
<path d="M107.212 33.0544H97.1735C97.2027 34.4546 97.8166 35.319 99.04 35.7783C100.414 36.2938 102.182 36.0642 102.874 35.0377C103.443 34.1935 104.073 34.0764 104.941 34.2092C105.676 34.3241 106.423 34.3736 107.167 34.4546C106.538 38.1735 103.045 40.1072 98.3834 39.3846C94.4029 38.7678 91.9066 35.211 92.5296 31.0487C93.2132 26.4834 96.8991 23.8519 101.649 24.5362C105.503 25.0922 107.82 28.5544 107.215 33.0544H107.212ZM102.728 30.5129C102.688 28.7818 101.667 27.8183 100.014 27.8386C98.3204 27.8589 97.2567 28.8944 97.2859 30.5129H102.728Z" fill="white"/>
<path d="M168.742 24.4434C173.328 24.4434 176.478 27.5229 176.476 31.9936C176.474 36.4531 173.307 39.5506 168.74 39.5641C164.186 39.5754 161.029 36.4778 161.026 31.9913C161.024 27.4981 164.148 24.4434 168.742 24.4434ZM165.614 31.8428C165.794 32.714 165.877 33.4636 166.111 34.1614C166.487 35.2915 167.305 35.9421 168.524 36.0073C169.765 36.0749 170.737 35.6044 171.245 34.4451C171.985 32.7522 171.978 31.0324 171.16 29.3575C170.66 28.3378 169.754 27.9348 168.677 27.9461C167.634 27.9551 166.741 28.3851 166.322 29.3688C165.978 30.1769 165.83 31.0684 165.616 31.8405L165.614 31.8428Z" fill="white"/>
<path d="M223.936 29.1964C223.801 29.2325 223.661 29.2932 223.52 29.3022C222.474 29.363 221.426 29.4148 220.403 29.4666C219.357 27.8075 218.154 27.1322 216.638 27.5531C216.134 27.6927 215.502 28.242 215.385 28.7147C215.208 29.4328 215.939 29.6377 216.562 29.757C217.958 30.0249 219.373 30.232 220.74 30.6079C223.005 31.2315 224.158 32.6879 224.196 34.7634C224.235 36.8097 223.11 38.3922 220.913 39.0766C218.442 39.8465 215.948 39.7947 213.559 38.7029C211.828 37.9105 210.827 36.5598 210.717 34.4978H214.661C215.197 36.2627 216.62 36.6544 218.334 36.4833C219.033 36.4135 219.741 36.2244 219.822 35.3915C219.906 34.5361 219.224 34.2434 218.536 34.0926C217.074 33.7752 215.586 33.5704 214.142 33.1877C212.565 32.7712 211.391 31.8595 211.056 30.1216C210.672 28.1182 211.544 26.1709 213.487 25.2705C216.231 24.0009 219.024 24.0729 221.709 25.4934C223.092 26.225 223.796 27.5261 223.936 29.1964Z" fill="white"/>
<path d="M188.948 33.0023C190.268 33.1126 191.453 33.2094 192.629 33.3062C192.636 36.8067 189.645 39.5147 185.829 39.562C181.318 39.6183 178.145 36.6266 178.023 32.1986C177.902 27.7774 180.841 24.6506 185.303 24.4548C189.432 24.2724 192.425 26.7352 192.665 30.6499C191.564 30.7286 190.457 30.8435 189.348 30.8592C189.137 30.8615 188.82 30.517 188.719 30.2672C188.01 28.5226 187.001 27.8067 185.438 28.0048C183.886 28.2006 182.971 29.1889 182.815 31.0235C182.741 31.9082 182.764 32.8357 182.948 33.7001C183.256 35.1476 184.264 35.922 185.638 35.9895C187.091 36.0615 188.118 35.3569 188.636 33.9297C188.737 33.6506 188.824 33.3692 188.948 33.0023Z" fill="white"/>
<path d="M130.929 39.1235H126.432V18.9062H130.929V39.1258V39.1235Z" fill="white"/>
<path d="M154.295 18.8838H158.748V39.1146H154.295V18.8838Z" fill="white"/>
<path d="M31 19.6023V45.9201H66.8041V10.0801L31 19.6023ZM61.3686 40.7042H36.4355V23.7286L61.3686 17.0968V40.7042Z" fill="white"/>
</svg>
